fs/weather_drizzle_20_regular.svg

<svg viewBox="0 0 20 20" fill="none" xmlns="http://www.w3.org/2000/svg" height="1em" width="1em">
  <path d="M10 3C12.4646 3 13.8627 4.5736 14.066 6.47399L14.1282 6.47399C15.7143 6.47399 17 7.71103 17 9.23699C17 10.763 15.7143 12 14.1282 12L13.425 11.999L13.4246 12H13.3957L12.4382 13.741C12.3051 13.9829 12.0011 14.0712 11.7591 13.9381C11.5172 13.805 11.4289 13.501 11.562 13.259L12.255 11.999H10.437L10.4366 12H10.3957L9.4382 13.741C9.30512 13.9829 9.00109 14.0712 8.75913 13.9381C8.51717 13.805 8.42891 13.501 8.56199 13.259L9.25501 11.999H7.432L7.43146 12H7.39573L6.4382 13.741C6.30512 13.9829 6.00109 14.0712 5.75913 13.9381C5.51717 13.805 5.42891 13.501 5.56199 13.259L6.25496 11.9991L5.87179 12C4.28575 12 3 10.763 3 9.23699C3 7.76755 4.19227 6.56602 5.69687 6.47903L5.93399 6.47399C6.13851 4.56111 7.53544 3 10 3ZM7.1101 11H10.091C10.0973 10.9999 10.1037 10.9999 10.1101 11H13.091C13.0973 10.9999 13.1037 10.9999 13.1101 11H14.1818C15.186 11 16 10.2212 16 9.26055C16 8.29988 15.186 7.5211 14.1818 7.5211L13.6319 7.52112C13.3411 7.52113 13.0871 7.30297 13.0871 7.02495C13.0871 5.24779 11.6494 4 10 4C8.35056 4 6.9129 5.2703 6.9129 7.02495C6.9129 7.30297 6.65891 7.52113 6.36808 7.52112L5.81818 7.5211C4.81403 7.5211 4 8.29988 4 9.26055C4 10.2212 4.81403 11 5.81818 11H7.09098C7.09734 10.9999 7.10372 10.9999 7.1101 11ZM7.74816 14.3159C7.98792 14.4529 8.07122 14.7583 7.93421 14.9981L6.93421 16.7481C6.79721 16.9878 6.49178 17.0711 6.25202 16.9341C6.01226 16.7971 5.92897 16.4917 6.06597 16.2519L7.06597 14.5019C7.20298 14.2622 7.5084 14.1789 7.74816 14.3159ZM10.9342 14.9981C11.0712 14.7583 10.9879 14.4529 10.7482 14.3159C10.5084 14.1789 10.203 14.2622 10.066 14.5019L9.06597 16.2519C8.92897 16.4917 9.01226 16.7971 9.25202 16.9341C9.49178 17.0711 9.79721 16.9878 9.93421 16.7481L10.9342 14.9981Z" fill="#212121"/>
</svg>

<svg viewBox="0 0 20 20" fill="none" xmlns="http://www.w3.org/2000/svg" height="1em" width="1em">
  <path d="M10 3c2.465 0 3.863 1.574 4.066 3.474h.062C15.714 6.474 17 7.711 17 9.237 17 10.763 15.714 12 14.128 12l-.703-.001V12h-.03l-.957 1.741a.5.5 0 0 1-.876-.482l.693-1.26h-1.818V12h-.041l-.958 1.741a.5.5 0 0 1-.876-.482l.693-1.26H7.432V12h-.036l-.958 1.741a.5.5 0 0 1-.876-.482l.693-1.26-.383.001C4.286 12 3 10.763 3 9.237c0-1.47 1.192-2.671 2.697-2.758l.237-.005C6.139 4.561 7.535 3 10 3Zm-2.89 8h7.071C15.187 11 16 10.221 16 9.26c0-.96-.814-1.739-1.818-1.739h-.55c-.29 0-.545-.218-.545-.496C13.087 5.248 11.65 4 10 4 8.35 4 6.913 5.27 6.913 7.025c0 .278-.254.496-.545.496h-.55C4.814 7.521 4 8.3 4 9.261 4 10.22 4.814 11 5.818 11h1.273a.61.61 0 0 1 .02 0Zm.638 3.316a.5.5 0 0 1 .186.682l-1 1.75a.5.5 0 0 1-.868-.496l1-1.75a.5.5 0 0 1 .682-.186Zm3.186.682a.5.5 0 0 0-.868-.496l-1 1.75a.5.5 0 0 0 .868.496l1-1.75Z" fill="#212121"/>
</svg>
